assets/images/feature/Group.svg

<svg width="43" height="36" viewBox="0 0 43 36" fill="none" xmlns="http://www.w3.org/2000/svg">
<path fill-rule="evenodd" clip-rule="evenodd" d="M22.3566 34.4923C22.0414 34.298 21.4157 33.9146 21.1625 33.6643C19.2695 32.1977 17.8009 30.2538 16.9074 28.032C16.026 28.09 15.1272 28.1207 14.2255 28.1207C10.2803 28.1207 6.5611 27.5679 3.75291 26.564C2.35151 26.063 1.24156 25.4659 0.452058 24.801V30.9338C0.452058 31.9662 1.86283 33.0867 4.22586 33.9314C6.88613 34.8824 10.4375 35.4067 14.2256 35.4067C17.1732 35.4067 19.9947 35.0859 22.3566 34.4927V34.4923ZM0.45166 22.2438V16.1113C1.24106 16.7763 2.35111 17.3736 3.75281 17.8744C6.5609 18.8784 10.2802 19.4311 14.2254 19.4311C17.7759 19.4311 21.1132 18.9891 23.7885 18.1744L23.3667 19.8529C23.3281 20.0065 23.3429 20.1687 23.4087 20.3129C22.2245 23.1056 20.0319 25.3498 17.2674 26.5987C16.2732 26.6761 15.2513 26.7163 14.2254 26.7163C10.4373 26.7163 6.88593 26.1921 4.22576 25.241C1.86273 24.3962 0.451959 23.2756 0.451959 22.2434L0.45166 22.2438ZM4.63346 29.7262L4.63436 29.7267C5.50305 30.0156 5.07662 31.3515 4.19339 31.0608C3.48671 30.831 2.79721 30.5514 2.13008 30.2241C1.28101 29.8238 1.9209 28.5194 2.75682 28.9675C3.36333 29.2651 3.9905 29.5185 4.63346 29.7258V29.7262ZM2.12938 21.5345C2.79632 21.8626 3.48617 22.1419 4.19349 22.3703C5.05859 22.665 5.52118 21.3295 4.63386 21.0366C3.99118 20.8293 3.36428 20.576 2.75802 20.2786C1.92907 19.8578 1.3084 21.1239 2.12978 21.5347L2.12938 21.5345Z" fill="#336AEA"/>
<path fill-rule="evenodd" clip-rule="evenodd" d="M0.45166 13.5536C0.45166 14.5859 1.86243 15.7064 4.22546 16.5512C6.88563 17.5023 10.437 18.0265 14.2251 18.0265C17.9684 18.0265 21.5786 17.4931 24.206 16.5579C24.4651 15.7785 24.9675 15.1028 25.6393 14.6303C26.3111 14.1578 27.1169 13.9134 27.938 13.9332C27.9779 13.8107 27.9984 13.6828 27.9987 13.554V7.427C27.2091 8.09179 26.0993 8.68885 24.6978 9.19009C21.4663 10.3456 17.6477 10.7469 14.2252 10.7469C10.8028 10.7469 6.98364 10.3451 3.75252 9.19009C2.35111 8.68905 1.24106 8.09199 0.45166 7.427V13.5536ZM2.75762 11.5874C3.36409 11.8844 3.991 12.1378 4.63356 12.3455C5.50445 12.6344 5.07802 13.9719 4.19299 13.6803C3.48565 13.4512 2.79576 13.1714 2.12868 12.8431C1.29565 12.4271 1.92578 11.1721 2.75762 11.5874Z" fill="#336AEA"/>
<path fill-rule="evenodd" clip-rule="evenodd" d="M0.45166 4.86296C0.458234 5.89332 1.86771 7.01074 4.22526 7.85353C6.88553 8.8045 10.4368 9.32825 14.2249 9.32825C18.0131 9.32825 21.5645 8.8045 24.2246 7.85353C26.5837 7.01014 27.9934 5.89202 27.9983 4.86137C27.9914 3.83469 26.5789 2.71877 24.2167 1.87428C21.5511 0.921317 18.0027 0.396973 14.225 0.396973C10.4474 0.396973 6.89888 0.921516 4.23353 1.87458C1.8699 2.71917 0.457238 3.83599 0.45166 4.86296Z" fill="#336AEA"/>
<path fill-rule="evenodd" clip-rule="evenodd" d="M34.0491 15.3731L35.915 15.8421L37.8075 8.72457C37.8163 8.67845 36.1249 8.20471 35.9838 8.20471C35.9207 8.20471 34.215 14.7487 34.0491 15.3731Z" fill="#336AEA"/>
<path fill-rule="evenodd" clip-rule="evenodd" d="M40.7193 18.4975L28.4275 15.4096C27.8051 15.2558 27.1472 15.3541 26.5971 15.6833C26.047 16.0125 25.6493 16.5459 25.4907 17.1671L24.9006 19.5143L41.8882 23.7828L42.4776 21.435C42.6313 20.8126 42.5328 20.1548 42.2037 19.6047C41.8746 19.0545 41.3414 18.6567 40.7204 18.4978L40.7193 18.4975Z" fill="#336AEA"/>
<path fill-rule="evenodd" clip-rule="evenodd" d="M24.6819 20.9076C23.4208 23.8534 21.1501 26.2526 18.2781 27.6738C19.0405 29.4894 20.2342 31.0918 21.7556 32.3421C23.2068 31.6494 24.5045 30.6731 25.5724 29.4709C25.6968 29.334 25.8702 29.2517 26.055 29.2419C26.2397 29.2321 26.4209 29.2956 26.5591 29.4185C26.6973 29.5415 26.7814 29.714 26.7932 29.8987C26.805 30.0833 26.7434 30.2651 26.622 30.4046C25.5993 31.556 24.3863 32.523 23.036 33.2634C23.7476 33.707 26.4848 35.1094 27.223 34.7822C29.3695 33.8437 31.198 32.3033 32.4874 30.3473C32.9911 29.585 34.1746 30.3409 33.6602 31.1214C32.5985 32.7317 31.2041 34.0958 29.5709 35.1218C32.4091 35.1056 35.1524 34.0978 37.3261 32.2727C39.4997 30.4476 40.9671 27.9201 41.4742 25.1275L24.6819 20.9076ZM27.2529 29.1263C27.1604 29.1269 27.0688 29.1092 26.9832 29.0741C26.8977 29.039 26.8199 28.9873 26.7546 28.9219C26.6892 28.8565 26.6374 28.7788 26.6023 28.6933C26.5672 28.6077 26.5495 28.5161 26.5501 28.4236C26.5526 28.2286 26.6301 28.0419 26.7665 27.9025C26.9029 27.763 27.0878 27.6814 27.2828 27.6747C27.4691 27.6747 27.6478 27.7487 27.7795 27.8804C27.9113 28.0122 27.9853 28.1909 27.9853 28.3772C27.9827 28.5722 27.9052 28.7587 27.7689 28.8982C27.6325 29.0376 27.4478 29.1193 27.2529 29.1263Z" fill="#336AEA"/>
</svg>

<svg width="43" height="36" fill="none" xmlns="http://www.w3.org/2000/svg"><path fill-rule="evenodd" clip-rule="evenodd" d="M22.357 34.492c-.316-.194-.941-.577-1.194-.828a13.494 13.494 0 0 1-4.256-5.632 40.94 40.94 0 0 1-2.681.089c-3.946 0-7.665-.553-10.473-1.557-1.401-.501-2.511-1.098-3.3-1.763v6.133c0 1.032 1.41 2.153 3.773 2.997 2.66.951 6.212 1.476 10 1.476 2.947 0 5.769-.321 8.13-.914ZM.452 22.244V16.11c.79.665 1.9 1.263 3.3 1.763 2.809 1.004 6.528 1.557 10.473 1.557 3.55 0 6.888-.442 9.563-1.257l-.421 1.679a.698.698 0 0 0 .042.46 12.066 12.066 0 0 1-6.142 6.286c-.994.077-2.016.117-3.042.117-3.788 0-7.34-.524-10-1.475-2.362-.845-3.773-1.965-3.773-2.998Zm4.181 7.482h.001c.869.29.443 1.626-.44 1.335-.707-.23-1.397-.51-2.064-.837-.849-.4-.21-1.705.627-1.256.606.297 1.233.55 1.876.758ZM2.13 21.535c.667.328 1.357.607 2.064.835.866.295 1.328-1.04.44-1.333-.642-.208-1.269-.461-1.875-.758-.829-.421-1.45.845-.628 1.256Z" fill="#336AEA"/><path fill-rule="evenodd" clip-rule="evenodd" d="M.452 13.554c0 1.032 1.41 2.152 3.773 2.997 2.66.951 6.212 1.476 10 1.476 3.743 0 7.354-.534 9.981-1.47a3.836 3.836 0 0 1 3.732-2.624c.04-.122.06-.25.06-.379V7.427c-.789.665-1.899 1.262-3.3 1.763-3.232 1.156-7.05 1.557-10.473 1.557-3.422 0-7.241-.402-10.472-1.557C2.35 8.69 1.24 8.092.452 7.427v6.127Zm2.306-1.967c.606.297 1.233.55 1.876.758.87.29.444 1.627-.441 1.335a15.47 15.47 0 0 1-2.064-.837c-.833-.416-.203-1.67.629-1.256Z" fill="#336AEA"/><path fill-rule="evenodd" clip-rule="evenodd" d="M.452 4.863c.006 1.03 1.416 2.148 3.773 2.99 2.66.952 6.212 1.475 10 1.475 3.788 0 7.34-.523 10-1.474 2.359-.844 3.768-1.962 3.773-2.993-.007-1.026-1.42-2.142-3.781-2.987C21.55.921 18.003.397 14.225.397c-3.778 0-7.326.525-9.991 1.478C1.87 2.719.457 3.836.452 4.863ZM34.05 15.373l1.865.47 1.892-7.118c.01-.047-1.682-.52-1.823-.52-.063 0-1.769 6.544-1.935 7.168ZM40.72 18.497 28.426 15.41a2.43 2.43 0 0 0-2.936 1.757l-.59 2.347 16.987 4.269.59-2.348a2.43 2.43 0 0 0-1.758-2.937ZM24.682 20.908a13.46 13.46 0 0 1-6.404 6.766 12.113 12.113 0 0 0 3.478 4.668 12.046 12.046 0 0 0 3.816-2.871.702.702 0 0 1 1.05.934 13.437 13.437 0 0 1-3.586 2.858c.712.444 3.449 1.846 4.187 1.52a12.121 12.121 0 0 0 5.264-4.436c.504-.762 1.688-.006 1.173.774a13.5 13.5 0 0 1-4.09 4 12.169 12.169 0 0 0 11.904-9.994l-16.792-4.22Zm2.57 8.218a.699.699 0 0 1-.702-.702.76.76 0 0 1 .733-.75.702.702 0 0 1 .702.703.76.76 0 0 1-.732.75Z" fill="#336AEA"/></svg>
